X:1
T:Title
%%score { ( 1 5 ) | ( 2 3 4 ) }
L:1/8
Q:1/4=84
M:6/8
K:G
V:1 treble nm="Grand Piano"
V:5 treble 
V:2 bass 
V:3 bass 
V:4 bass 
V:1
 [DBd]>cB BAG | .[CEA]2 [CE] [G,B,D]3 | B,2- [B,F] GFG | ^C3 A3[K:bass] | [DBd]>cB BAG | ccc E3 | %6
w: Fred~Weldon * * * * *||||||
 DEF GFG | ADA [B,G]3 | B>cd [=Fd]2 [Fd] | [Ec][EG][EA] [^DB]3 | [EA][CE][EA] GDG | FGA [B,DG]3 |] %12
w: ||||||
V:2
 z3 D3 | z[K:treble] GG,[K:bass] G,,3 | z EF, [E,B,E]3 | [A,,G,]3 .[D,F,D]3 | z3 D3 | z3 C3 | %6
 [D,C]-[D,-G,C-][D,A,C] [E,^C]2- [E,G,C] | [D,F,C]3 [G,,G,]3 | %8
 [G,D]>[G,A,D][G,B,D] [B,,G,]2 [B,,G,] | [C,G,][C,G,][C,E,] [B,,F,]3 | %10
 [C,C][C,A,][C,C] [D,B,D][D,G,B,][D,B,D] | [D,A,D][D,B,D][D,CD] G,,3 |] %12
V:3
 z z/ E/D z [A,,F,][B,,G,] | C,3[K:treble][K:bass] z3 | .G,3 z3 | x6 | z z/ E/D z [A,,F,][B,,G,] | %5
 [C,G,]6 | .F,3 .A,3 | x6 | x6 | x6 | x6 | x6 |] %12
V:4
 .[G,,G,]6 | x[K:treble] x2[K:bass] x3 | x6 | x6 | .[G,,G,]6 | x6 | x6 | x6 | x6 | x6 | x6 | x6 |] %12
V:5
 x6 | x6 | .D3 z3 | AGB z[K:bass] C,B,, | x6 | E3 z3 | x6 | x6 | x6 | x6 | x6 | x6 |] %12

